X:1
T:Tra verdi frondi
T:Leandro Mira
T:Source : Secondo libro de madrigali a quattro voci---Venetia---G.Scotto---1570. Editor : André Vierendeels (25/08/17).
T:Tra verdi frondi
T:©
T:©
T:©
T:©
T:©
C:Leandro Mira
Z:©
%%score [ 1 2 3 4 ]
L:1/8
Q:1/4=120
M:4/4
K:C
V:1 treble nm="Soprano" snm="S"
V:2 treble nm="Alto" snm="A"
V:3 treble-8 nm="Tenor 1" snm="T 1"
V:4 treble-8 nm="Tenor 2" snm="T 2"
V:1
 G4 A2 B2 | c4 B4 | z2 d2 G2 A2 | B4 c4 | e6 d2 | c4 B4 | A4 B4 | z2 B2 B2 G2 | A2 B2 c4 | %9
w: Tra ver- di|fron- di,|tra ver- di|fron- di|d'un gi-|ne- br'a|ma- to|che pur' al'|hor' al ciel|
 z4 z2 d2 | e2 f2 g4- | g4 ^f2 e2 | ^f4 z2 f2 | e4 f2 d2- |"^#" d2 cB ^c4 | d4 z2 c2 | c3 c d2 e2 | %17
w: i|ra- mi'a- pri-||va, i|ra- mi'a- pri-||va, nel|di- let- to- so'A-|
 f4 e4 | z2 g2 e2 e2 | f4 e2 e2 | d2 c2 e4 | d4 z2 c2 | B2 A2 c4 | B2 G2 B2 c2 | d2 d2 e4 | %25
w: pri- le|in un bel|pra- to, di|fior' a- dor-|no, di|fior' a- dor-|no, a la dolc'|ombr' es- ti-|
 A4 z2 A2 | c2 e2 d2 G2 | A3 B cd e2 | c4 z2 c2 | d2 e2 dc c2- | c2 BA B4 | c2 G2 c2 B2 | %32
w: va, o-|ve l'ac- qua piu|chia- * * * *|ra in|o- gni la- * *||to, per l'er- ba|
 c2 d2 e3 e | e2 d2 z4 | z2 c3 B c2 | d2 e2 d4 | z4 z2 B2- | B2 B2 c4 | c2 d2 e4 | d2 e2 ^f2 g2- | %40
w: fre- sca mor- mo-|ran- do,|mor- mo- ran-|do gi- va,|vagh'|_ au- gel-|li ren- dean|can- tand' a pro-|
 g^f/e/ f2 g4 | z8 | z8 | c6 B2 | _B4 A4 | z2 A4 G2 | G4 F2 F2 | E2 e2 d2 d2 | d8 | d2 G2 c2 d2 | %50
w: * * * * va|||al af-|flit- to,|al af-|flit- to mio|cor dol- cez- za|no-|va, dol- cez- za|
 e4 d2 B2 | e2 d2 c4 | B8 |] %53
w: no- va, dol-|cez- za no-|va.|
V:2
 z4 D4 | E2 F2 G4 | F4 z2 F2 | E2 D2 F4 | G2 G4 D2 | E2 C2 DG, G2- | GF ^F2 G4 | z2 G2 D2 E2 | %8
w: Tra|ver- di fron-|di, tra|ver- di fron-|di d'un gi-|ne- br'a ma- * *|* * * to,|che pur' al'|
 D2 D2 A4 | D4 E2 F2 | G6 A2 | _B4 A4 | z2 A2 A4- | A4 A4 | A8 | ^F4 z2 A2 | A3 A A2 G2 | %17
w: hor' al ciel|i ram' a|pri- *|* va,|i ra-|* mi'a|pri-|va, nel|di- let- to- so'A-|
 F2 D2 z2 G2 | A2 B2 c3 B | A4 G2 G2- | G2 A4 G2 | G4 E4 | z4 z2 F2 | D2 E2 E2 E2 | G8 | %25
w: pri- le in|un bel pra- *|* to, di|_ fior' a-|dor- no,|a|la dolc' ombr' es-|ti-|
"^-natural" ^F4 z2 F2 | G2 G2 G2 D2 | F4 C4 | z2 F2 G2 A2 | G4 G2 E2 | G2 G2 G4 | E2 E2 E2 G2 | %32
w: va, o-|ve l'ac- qua piu|chia- ra|in o- gni|la- to, in|o- gni la-|to, per l'er- ba|
 F4 E2 C2- | C2 B,2 C2 D2 | E4 A,2 A2- | AA G2 A2 GF | ED C4 B,2 | z2 G4 G2 | A4 G3 A | %39
w: fre- sca mor-|* mo- ran- do|gi- va, mor-|* mo- ran- do gi- *|* * * va,|vagh' au-|gel- li ren-|
 B2 c2 A2 G2 | A4 B2 G2- | G2 G2 G4 |"^-natural" F2 D2 C4- | C4 z4 | z2 G4 F2 | F4 E2 E2 | %46
w: dean can- tand' a|pro- va, al|_ af- flit-|to mio cor,|_|al af-|flit- to mio|
 D4 z2 D2 | ^C4 D2 A2 | B2 B2 A4 | B4 G2 G2- | G2 A2 B4 | G8- | G8 |] %53
w: cor dol-|cez- za, dol-|cez- za no-|va, dol- cez-|* za no-|va.|_|
V:3
 z8 | z4 G4 | A2 B2 c4 | B4 A2 A2 | c4 G2 g2- | g^f f2 g4 | z4 z2 d2 | d4 B2 c2- | c2 B2 e2 A2 | %9
w: |Tra|ver- di fron-|di d'un gi-|ne- br'a- ma-|* * * to,|che|pur' al' hor'|_ al ciel i|
 B2 A2 z2 A2 | c2 d2 e4 | d8- | d8 | z4 z2 f2 | e2 f2 e4 | d4 z2 e2 |"^-natural" f3 f f2 c2- | %17
w: ra- mi, i|ra- mi'a- pri-|va,|_|i|ra- mi'a- pri-|va, nel|di- let- to- so'A-|
 c2 B2 c4 | z2 d2 c2 c2 | c4 c2 c2 | B2 A2 c4 | B2 G2 B2 c2 | d2 d2 e2 A2 | z2 G2 G2 A2 | %24
w: * pri- le|in un bel|pra- to, di|fior' a- dor-|no, a la dolc'|ombr' es- ti- va|a la dolc'|
 B2 B2 c4 | d2 A2 d4 | c4 c2 B2 | c4 A2 G2 | ABcd e4 | B4 z2 c2 | d2 e2 d4 | c2 c2 A2 G2 | %32
w: ombr' es- ti-|va, o- ve|l'ac- qua piu|chia- ra, piu|chia- * * * *|ra in|o- gni la-|to, per l'er- ba|
 A2 B2 c2 g2 | g2 d2 a4 | g4 z4 | z2 c4 B2 | c3 d e2 d2 | z2 e4 e2 | f4 e2 c2 | g2 c2 d2 e2 | %40
w: fre- sca mor- mo-|ran- do gi-|va,|mor- mo-|ran- do gi- va,|vagh' au-|gel- li ren-|dean can- tand'a _|
 d4 G4 | z8 | z2 f4 e2 | e8 | d4 z2 d2- | d2 c2 c4 | B2 B2 A4 | z2 A2 a4 | g4 ^f4 | g2 d2 c2 B2 | %50
w: pro- va,||al af-|flit-|to, al|_ af- flit-|to mio cor|dol- cez-|za no-|va, dol- cez- za|
 c4 G2 G2 | c2 d2 e4 | d8 |] %53
w: no- va, dol-|cez- za no-|va.|
V:4
 z8 | z8 | D4 E2 F2 | G4 F4 | z2 c4 B2 | A4 G4 | d4 G4 |"^-natural" z2 G2 G2 E2 | F2 G2 A2 F2 | %9
w: ||Tra ver- di|fron- di|d'un gi-|ne- br'a|ma- to,|che pur' a|l'hor' al ciel i|
 G2 F2 E2 D2 |"^-natural" C4 C4 | D8 | D4 z2 d2 | ^c4 d4 | A8 | D4 z2 A2 | F3 F F2 E2 | D4 C4 | %18
w: r- * * *|* m'a|pri-|va, i|ra- mi'a|pri-|va, nel|di- let- to- s'A-|pri- le|
 z2 G2 A3 G | F4 C4 | z2 F2 E2 C2 | G4 G2 A2 | G2 F2 E2 F2 | G2 C2 z2 c2 | G3 F E4 | D8 | %26
w: in un bel|pra- to,|di fior' a-|dor- no, a|la dolc' ombr' es-|ti- va, es-|ti- * *|va,|
 z2 C2 G4 | F4 F2 E2 | F4 C4 | z2 E2 G2 A2 | G8 | C4 z4 | z4 z2 E2 | E2 G2 F4 | E4 F4- | %35
w: o- ve|l'ac- qua piu|chia- ra|in o- gni|la-|to,|per|l'er- ba fre-|sca mor-|
 F2 E2 F2 G2 | A4 G4 | z8 | z8 | z8 | z8 | c6 B2 | _B4 A4 | z2 A4 G2 | G4 D4 | F4 CDEF | G4 D4 | %47
w: * mo- ran- do|gi- va,|||||al af-|flit- to,|al af-|flit- to|mio cor _ _ _|_ dol-|
 A4 F2 ^F2 | G2 G2 d4 | G4 z4 | z4 z2 d2 | c2 B2 c4 | G8 |] %53
w: cez- za, dol-|cez- za no-|va,|dol-|cez- za no-|va.|

